X:93
T:John Brennan from Sligo (reel)  
B:CRE1.160 (Sean O Brionain as Sligeach)
F:file ID: cre.1/093john_b
S:Sonny Brogan
M:C
L:1/8
Q:180
R:reel
K:D
D2FA defd|cdBF AFF2|(3ABA GB ADFA|BAGF EA,CE|
D2FA defd|cdBF AFF2|(3ABA GB ADFA|dfag fdd2:|
%B1
"9"afdf efde|fd (3Bcd AF~F2|A2GB ADFA|BAGF EA,CE|
fadf efde|fd (3Bcd AF~F2|A2GB ADFA|dfag fdd2|
%B2
"17"afdf efde|fd (3Bcd AF~F2|A2GB ADFA|BAGF EA,CE|
D2FA defd|cdBF AFF2|(3ABA GB ADFA|dfag fdHd2|]

%%%

